X: 834
T: Polska efter Alfred Eriksson
S: efter [[Personer/Alfred Eriksson]], Götstorp, Ärila
B: [[http://www.smus.se/earkiv/fmk/browselarge.php?lang=sw&katalogid=S%F6+5&bildnr=00002|SMUS - katalog Sö 5 bild 2]] 
B: Jämför [[http://www.smus.se/earkiv/fmk/browselarge.php?lang=sw&katalogid=S%F6+9&bildnr=00023|SMUS - katalog Sö 9 bild 23]] efter [[Personer/Emil Söderqvist]] från Flen
B: Jämför [[http://www.smus.se/earkiv/fmk/browselarge.php?lang=sw&katalogid=M+170&bildnr=00022|SMUS - katalog M170 bild 22]] ur [[Notböcker/Conrad Sandstens notbok]] (längst ned t.v.)
B: Jämför [[http://www.smus.se/earkiv/fmk/browselarge.php?lang=sw&katalogid=M+93&bildnr=00033|SMUS - katalog M93 bild 33]] efter [[Personer/Andreas Grevelius]] ([[Platser/Småland]])
B: Jämför [[http://www.smus.se/earkiv/fmk/browselarge.php?lang=sw&katalogid=Ma+9&bildnr=00053|Ma9 Bild 53]] efter [[Personer/Ludvig Olsson]]
B: Jämför [[http://www.smus.se/earkiv/fmk/browselarge.php?lang=sw&katalogid=Hs+14&bildnr=00014|Hs14 bild 14]] efter [[Personer/J Adolf Hägg]]/[[Personer/Nils W Hägg]]
B: Jämför [[http://www.smus.se/earkiv/fmk/browselarge.php?lang=sw&katalogid=Ma+4&bildnr=00032|SMUS - katalog Ma4 bild 32]] nr 136 ur [[Notböcker/Kumlins notsamling]]
B: Jämför [[http://www.smus.se/earkiv/fmk/browselarge.php?lang=sw&katalogid=MMD+47&bildnr=00009|SMUS - katalog MMD47 bild 9]] nr 24 ur [[Notböcker/Daniel Danielssons notbok]]
B: Jämför [[http://www.smus.se/earkiv/fmk/browselarge.php?lang=sw&katalogid=Ma+13a&bildnr=00106|SMUS - katalog Ma13a bild 106]] nr 297 (står där att den är av [[Personer/Johan Chr Aspelin]])
O: Södermanland
N: Se även Rosenberg: 160 polskor nr 20.
R: Polska
Z: Nils L, 2008-12-16
M: 3/4
L: 1/16
K: Dm
{AB^c} | S d4 D4 E4 | F2FE F2A2 ^C2E2 | D2D^C D2F2 E2G2 | F2FE F2A2 ^C2E2 |
D4 f4 e2d2 | ^cdec d4 D4 :: \
K:Am
a4 A4 B4 | c2cB c2e2 ^G2B2 |
A2A^G A2c2 B2d2 | c2cB c2e2 ^G2B2 | A4 c'4 b2a2 | e2a2 (^ga)bg a4 ||
A2a2 a2^ga =b2a2 | A2g2 g2^fg a2g2 | f2ef g2f2 e2d2 | ^c2"b?"=B2 A2G2 F2E S||
(:musicend:)

Ovanstående är en transkribering av notuppteckningen på smus.se. Jag har ett vagt minne av att ha hört första reprisen sluta enligt följande. 
Den som känner till låten bättre är välkommen att göra ändringar här ovan.
(:music:)
